assets/images/script/j-1-beg.svg

<svg fill="none" height="153" viewBox="0 0 282 153" width="282" xmlns="http://www.w3.org/2000/svg"><path d="m76.5336 87.7921c-1.0946-9.851 21.9117-6.7753 27.8064-6.1055 14.824 1.6846 33.729 8.7959 38.756 24.6204 3.945 12.421-6.936 24.33-16.591 30.329-35.3301 21.952-83.9855 17.945-108.9021-13.228-14.36946-17.977-20.28919-41.9243-7.3-62.2485 14.6153-22.8687 40.214-32.0176 64.7707-41.9144 44.5604-17.95846 91.4264-25.74497 134.4524 2.1809 17.974 11.6661 29.474 20.074 44.53 33.3307 16.944 14.9198 19.153 22.4016 23.426 37.2826 7.107 24.7517-8.98 57.4677-37.296 58.2667-14.14.4-22.888-12.833-16.724-25.881 6.724-14.235 23.619-18.616 37.031-23.493" stroke="#000" stroke-linecap="round" stroke-width="5"/></svg>

<svg width="282" height="153" viewBox="0 0 282 153" fill="none" xmlns="http://www.w3.org/2000/svg">
<path d="M76.5336 87.7921C75.439 77.9411 98.4453 81.0168 104.34 81.6866C119.164 83.3712 138.069 90.4825 143.096 106.307C147.041 118.728 136.16 130.637 126.505 136.636C91.1749 158.588 42.5195 154.581 17.6029 123.408C3.23344 105.431 -2.68629 81.4837 10.3029 61.1595C24.9182 38.2908 50.5169 29.1419 75.0736 19.2451C119.634 1.28664 166.5 -6.49987 209.526 21.426C227.5 33.0921 239 41.5 254.056 54.7567C271 69.6765 273.209 77.1583 277.482 92.0393C284.589 116.791 268.502 149.507 240.186 150.306C226.046 150.706 217.298 137.473 223.462 124.425C230.186 110.19 247.081 105.809 260.493 100.932" stroke="black" stroke-width="5" stroke-linecap="round"/>
</svg>
